X: 13
T:Rolling in the Ryegrass
M:C|
L:1/8
R:reel
K:D
~A3F DFAF|G2BG dGBG|~A3F DFAF|GBAG FADF|
~A3F DFAF|G2BG dGBG|~A3F DFAF|GBAG FAD2||
ABde ~f3d|~g3e fedB|ABde ~f2bf|afeg fedB|
ABde ~f3d|~g3e fedB|ABde ~f2bf|afeg fedB||

